X:1
T: Harbour Lights
C:
R:Reel
Q: 232
K:G
M:4/4
L:1/8
|:D2|GF GB dB G2|cB ce ge c2|GF GB dB G2|AG FE D2 D2|
GF GB dB G2|cB ce ge c2|dg fe ((3ded) ((3cBA)|G2 B2 G2:|
|:D2|A^G AB cA F2|GF GA BG D2|cB cA BA BG|((3ABA) ((3GFE) D2 D2|
A^G AB cA F2|GF GA BG D2|dg fd ((3ded) ((3cBA)|G2 B2 G2:|
